common/src/main/resources/icons/toolbarDecorator/addLink.svg

<svg xmlns="http://www.w3.org/2000/svg" width="16" height="16" data-big="true" viewBox="0 0 24 24"><path fill="#4DD0E1" d="M16 6h-3v1.9h3a4.1 4.1 0 0 1 4.1 4.1 4.1 4.1 0 0 1-4.1 4.1h-3V18h3a6 6 0 0 0 6-6c0-3.32-2.69-6-6-6M3.9 12A4.1 4.1 0 0 1 8 7.9h3V6H8a6 6 0 0 0-6 6 6 6 0 0 0 6 6h3v-1.9H8c-2.26 0-4.1-1.84-4.1-4.1M8 13h8v-2H8z"/></svg>

<!--
  - The MIT License (MIT)
  -
  - Copyright (c) 2015-2024 Elior "Mallowigi" Boukhobza
  -
  - Permission is hereby granted, free of charge, to any person obtaining a copy
  - of this software and associated documentation files (the "Software"), to deal
  - in the Software without restriction, including without limitation the rights
  - to use, copy, modify, merge, publish, distribute, sublicense, and/or sell
  - copies of the Software, and to permit persons to whom the Software is
  - furnished to do so, subject to the following conditions:
  -
  - The above copyright notice and this permission notice shall be included in all
  - copies or substantial portions of the Software.
  -
  - THE SOFTWARE IS PROVIDED "AS IS", WITHOUT WARRANTY OF ANY KIND, EXPRESS OR
  - IMPLIED, INCLUDING BUT NOT LIMITED TO THE WARRANTIES OF MERCHANTABILITY,
  - FITNESS FOR A PARTICULAR PURPOSE AND NONINFRINGEMENT. IN NO EVENT SHALL THE
  - AUTHORS OR COPYRIGHT HOLDERS BE LIABLE FOR ANY CLAIM, DAMAGES OR OTHER
  - LIABILITY, WHETHER IN AN ACTION OF CONTRACT, TORT OR OTHERWISE, ARISING FROM,
  - OUT OF OR IN CONNECTION WITH THE SOFTWARE OR THE USE OR OTHER DEALINGS IN THE
  - SOFTWARE.
  -->


<svg data-big="true" xmlns="http://www.w3.org/2000/svg" version="1.1" width="16px" height="16px" viewBox="0 0 24 24">
  <path fill="#4DD0E1"
        d="M16,6H13V7.9H16C18.26,7.9 20.1,9.73 20.1,12A4.1,4.1 0 0,1 16,16.1H13V18H16A6,6 0 0,0 22,12C22,8.68 19.31,6 16,6M3.9,12C3.9,9.73 5.74,7.9 8,7.9H11V6H8A6,6 0 0,0 2,12A6,6 0 0,0 8,18H11V16.1H8C5.74,16.1 3.9,14.26 3.9,12M8,13H16V11H8V13Z"/>
</svg>
